X: 405
T:J'ai adès d'amour chanté/Omnes
C:Adam de la Halle
F:https://gallica.bnf.fr/ark:/12148/btv1b6001348v/f81.item
F:https://archive.org/details/oeuvrescompltes00cousgoog/page/n356
Z:Ali Corbin <ali.corbin:gmail.com>
M:3/4
L:1/4
Q:1/4=110
K:F Lydian
%
%%MIDI program 1       42 Cello
%%MIDI program 2       72 piccolo
V:1 clef=treble_8
V:2 clef=treble_8
%
%%%%%%%%%%%%%%%%%%%%%%%% duplum %%%%%%%%%%%%%%%%%%%%%%%%%%%%%%%%%%%%
[V:1]
    C2 ((3:2:2D/E)|F2   E |(DC)    B,|C2 z | D2 ((3:2:2C/B,)|C2  F |
w: J'ai       a-*  dès d'a-mour* chan-té     et        ser-* vi En 
   E (3:2:2D/C ((3:2:2D/E)|F2 z | C2 (3D/E/F/| E2  C |(DC) _B,| C2  F |
w:bon**	              es-*poir    Ma   dame**  et  si ai* guer- pi pour
  ((3:2:2E/DC) ((3:2:2D/C)| F2 z |(DC)  B, | C2 (3B,/A,/G,/|A,2 B, C2 z |
w:       li**         a-*  voir    Es-*cole  a-   mis**     et  a-voir   
    F   F   F |  F2   E |((3:2:2E/DC)   D |  E2   D |((3:2:2E/DC)  B, | C2 z ||
w: Est che don drois k'a-       mour** me   Lais-sant       ne-** nil voir.
%%%%%%%%%%%%%%%%%%%%%%%%%%%%% tenor %%%%%%%%%%%%%%%%%%%%%%%%%%%%%%%%%%%%
[V:2]
  F,6 | G,2 z | F,3 | D,3 | F,2 z | 
w:Omnes. ~ ~ ~ ~
	 			 F,6 | F,2 z | A,3 | G,3 | F,2 z |
  F,6 | G,2 z | F,3 | D,3 | F,2 z|
				 F,3 | F,2 z | A,2 z | G,6 | F,2 z ||
%
W:
W:J'ai adès d'amour chanté et servi 
W: En bon espoir 
W:Ma dame et si ai guerpi 
W: Pour li avoir
W:Escole amis et avoir 
W:Est che don drois k'amour me
W: Laissant nenil voir.
W:
W:
W:Omnes.


